_inc/systems/logos/atomiswave.svg

<svg xmlns="http://www.w3.org/2000/svg" viewBox="0 0 3839 537.6"><path d="m495 102.6-9.7 41c1.1 4.8 2.7 9.5 4.5 14.1.8 2 1.6 3.9 2.4 5.8l11.7-49.6h111.2L551.7 382H450.5c-.8.4-1.5.8-2.3 1.2-2.7 1.3-5.6 2.6-8.6 3.1-2.4.4-5.1.1-6.8-1.7-1-1-1.5-2.3-1.9-3.7-.3-1.2-.6-2.4-.7-3.6l-3.8 16h134.4l68.7-290.7zM127.1 0 0 537.6h134.4l66.7-282c-.7-1.5-1.4-2.9-2-4.4-1.3-2.9-2.5-5.8-3.4-8.8a74 74 0 0 1-1.5-6.4l-68.7 290.3H14.3l121.8-515h106.3c.7-1 1.5-2 2.5-2.8 1.5-1.2 3.3-1.9 5.2-2 2.5-.1 4.8.7 6.7 2.3.8.6 1.5 1.4 2.2 2.1L261.5 0zm320.3 59.1c2.5-1.9 5.8-2.8 8.9-2.5 3 .3 5.8 1.3 7.8 3.7 1.4 1.6 2.4 3.5 3.6 5.2l3.4-14.2H336.6L305 185.1c.8 1.3 1.5 2.7 2 4.1 1.9 4.9 2.6 10.2 3.6 15.4l.6 3.1 34.3-145.2H444c1-1.2 2.1-2.4 3.4-3.4m-40.9 253c-1.4-6.2-2-12.6-2.8-18.9-.2-1.3-.3-2.5-.5-3.8l-32.9 139.1c.4.9.7 1.7 1.1 2.6 1.7 4.4 3.3 8.9 4.7 13.4h2l30-126.9c-.7-1.8-1.2-3.6-1.6-5.5m-36.7 118.1-.7 3.1h-92.9c-6 4.2-13.4 7-20.5 4.4-3-1.1-5-3.4-6.8-5.9-.5-.8-1.1-1.6-1.6-2.3l-3.6 15.2H375c-1.6-5-3.3-9.8-5.2-14.5" class="st0" style="fill:#fff"/><path d="m252.8 11.3 110.6 422h-111l-110.6-422zM261.5 0H127.1l116.5 444.5H378zm200.8 62.6L546 382H435L351.3 62.6zm8.7-11.3H336.6l89.6 342h134.4zm818.1 88.5 10-37.2H987.5l3.5 37.2h100.1l-51.4 217.3c-4.3 18.3 9.6 35.9 28.4 35.9h60.2l59.9-253.2zm1523.4-37-59.8 253h-46.6l59.8-253.1h-97.1l-59.9 253.1h-46.6l59.9-253.2h-97.1l-60.2 254.6c-4.3 18.3 9.6 35.9 28.4 35.9l347.7.1 68.7-290.4zm623.2-.1-59.8 253.1H3340l-23.1-253.2H3222l24.1 263.9c1.4 15 14 26.5 29 26.5l189.1.2 68.7-290.4h-97.2Zm186.2-.1-42.4.2-60.2 254.5c-4.3 18.3 9.6 35.9 28.4 35.9h60.2l162.4-.2 8.8-37.2h-162.4l26.4-111.8h143.7l8.8-37.2H3652l15.8-67h162.4l8.8-37.1zm-2287.5.3-60.2 254.5c-4.3 18.3 9.6 35.9 28.4 35.9l224.4-.3 60.2-254.5c4.3-18.3-9.6-35.9-28.4-35.9zm37.3 252.9 51.1-216h66.9l-51.1 216zm270.6-253.2L1573.6 393h97.1l59.9-253.2h46.6l-59.9 253.3h97.1l59.9-253.3h46.6L1861 393.2h97.1l60.2-254.6c4.3-18.3-9.6-35.9-28.4-35.9zm431.2.2-60.2 254.5c-4.3 18.3 9.6 35.9 28.4 35.9h60.2l68.7-290.4zm-1333.3-.2L671.5 393h97.1l17.8-75.5h94.1l6.9 75.5h94.9l-24.1-263.9c-1.4-15-14-26.5-29.1-26.5zm55.1 177.7 33.2-140.5h35.9l12.8 140.5zm2161.3-177.7L2887.9 393h97.1l17.9-75.5h94.1l6.9 75.5h94.9l-24.1-263.9c-1.4-15-14-26.5-29.1-26.5zm55.1 177.7 33.2-140.5h35.9l12.8 140.5zm-721.9-73.5 15.8-67h164l8.8-37.2-261.3.3-24.9 105.2c-4.3 18.3 9.6 35.9 28.4 35.9h127.1l-26.4 111.8h-164l-8.9 37.2h261.3l35.5-150.3c4.3-18.3-9.6-35.9-28.4-35.9z" class="st0" style="fill:#fff"/></svg>

<?xml version="1.0" encoding="utf-8"?>
<svg version="1.1" viewBox="0 0 3839 537.6" xmlns="http://www.w3.org/2000/svg">
  <path class="st0" d="M 495 102.6 L 485.3 143.6 C 486.4 148.4 488 153.1 489.8 157.7 C 490.6 159.7 491.4 161.6 492.2 163.5 L 503.9 113.9 L 615.1 113.9 L 551.7 382 L 450.5 382 C 449.7 382.4 449 382.8 448.2 383.2 C 445.5 384.5 442.6 385.8 439.6 386.3 C 437.2 386.7 434.5 386.4 432.8 384.6 C 431.8 383.6 431.3 382.3 430.9 380.9 C 430.6 379.7 430.3 378.5 430.2 377.3 L 426.4 393.3 L 560.8 393.3 L 629.5 102.6 L 495 102.6 Z" style="fill: rgb(255, 255, 255);"/>
  <path class="st0" d="M 127.1 0 L 0 537.6 L 134.4 537.6 L 201.1 255.6 C 200.4 254.1 199.7 252.7 199.1 251.2 C 197.8 248.3 196.6 245.4 195.7 242.4 C 195.1 240.3 194.6 238.1 194.2 236 L 125.5 526.3 L 14.3 526.3 L 136.1 11.3 L 242.4 11.3 C 243.1 10.3 243.9 9.3 244.9 8.5 C 246.4 7.3 248.2 6.6 250.1 6.5 C 252.6 6.4 254.9 7.2 256.8 8.8 C 257.6 9.4 258.3 10.2 259 10.9 L 261.5 0 L 127.1 0 Z" style="fill: rgb(255, 255, 255);"/>
  <path class="st0" d="M 447.4 59.1 C 449.9 57.2 453.2 56.3 456.3 56.6 C 459.3 56.9 462.1 57.9 464.1 60.3 C 465.5 61.9 466.5 63.8 467.7 65.5 L 471.1 51.3 L 336.6 51.3 L 305 185.1 C 305.8 186.4 306.5 187.8 307 189.2 C 308.9 194.1 309.6 199.4 310.6 204.6 C 310.8 205.6 311 206.7 311.2 207.7 L 345.5 62.5 L 444 62.5 C 445 61.3 446.1 60.1 447.4 59.1 Z" style="fill: rgb(255, 255, 255);"/>
  <path class="st0" d="M 406.5 312.1 C 405.1 305.9 404.5 299.5 403.7 293.2 C 403.5 291.9 403.4 290.7 403.2 289.4 L 370.3 428.5 C 370.7 429.4 371 430.2 371.4 431.1 C 373.1 435.5 374.7 440 376.1 444.5 L 378.1 444.5 L 408.1 317.6 C 407.4 315.8 406.9 314 406.5 312.1 Z" style="fill: rgb(255, 255, 255);"/>
  <path class="st0" d="M 369.8 430.2 L 369.1 433.3 L 276.2 433.3 C 270.2 437.5 262.8 440.3 255.7 437.7 C 252.7 436.6 250.7 434.3 248.9 431.8 C 248.4 431 247.8 430.2 247.3 429.5 L 243.7 444.7 L 375 444.7 C 373.4 439.7 371.7 434.9 369.8 430.2 Z" style="fill: rgb(255, 255, 255);"/>
  <path class="st0" d="M 252.8 11.3 L 363.4 433.3 L 252.4 433.3 L 141.8 11.3 L 252.8 11.3 M 261.5 0 L 127.1 0 L 243.6 444.5 L 378 444.5 L 261.5 0 L 261.5 0 Z" style="fill: rgb(255, 255, 255);"/>
  <path class="st0" d="M 462.3 62.6 L 546 382 L 435 382 L 351.3 62.6 L 462.3 62.6 M 471 51.3 L 336.6 51.3 L 426.2 393.3 L 560.6 393.3 L 471 51.3 L 471 51.3 Z" style="fill: rgb(255, 255, 255);"/>
  <path class="st0" d="M 1289.1 139.8 L 1299.1 102.6 L 987.5 102.6 L 991 139.8 L 1091.1 139.8 L 1039.7 357.1 C 1035.4 375.4 1049.3 393 1068.1 393 L 1128.3 393 L 1188.2 139.8 L 1289.1 139.8 Z" style="fill: rgb(255, 255, 255);"/>
  <path class="st0" d="M 2812.5 102.8 L 2752.7 355.8 L 2706.1 355.8 L 2765.9 102.7 L 2668.8 102.7 L 2608.9 355.8 L 2562.3 355.8 L 2622.2 102.6 L 2525.1 102.6 L 2464.9 357.2 C 2460.6 375.5 2474.5 393.1 2493.3 393.1 L 2841 393.2 L 2909.7 102.8 L 2812.5 102.8 Z" style="fill: rgb(255, 255, 255);"/>
  <path class="st0" d="M 3435.7 102.7 L 3375.9 355.8 L 3340 355.8 L 3316.9 102.6 L 3222 102.6 L 3246.1 366.5 C 3247.5 381.5 3260.1 393 3275.1 393 L 3464.2 393.2 L 3532.9 102.8 L 3435.7 102.8 Z" style="fill: rgb(255, 255, 255);"/>
  <path class="st0" d="M 3621.9 102.6 L 3579.5 102.8 L 3519.3 357.3 C 3515 375.6 3528.9 393.2 3547.7 393.2 L 3607.9 393.2 L 3770.3 393 L 3779.1 355.8 L 3616.7 355.8 L 3643.1 244 L 3786.8 244 L 3795.6 206.8 L 3652 206.8 L 3667.8 139.8 L 3830.2 139.8 L 3839 102.7 L 3621.9 102.6 Z" style="fill: rgb(255, 255, 255);"/>
  <path class="st0" d="M 1334.4 102.9 L 1274.2 357.4 C 1269.9 375.7 1283.8 393.3 1302.6 393.3 L 1527 393 L 1587.2 138.5 C 1591.5 120.2 1577.6 102.6 1558.8 102.6 L 1334.4 102.9 Z M 1371.7 355.8 L 1422.8 139.8 L 1489.7 139.8 L 1438.6 355.8 L 1371.7 355.8 Z" style="fill: rgb(255, 255, 255);"/>
  <path class="st0" d="M 1642.3 102.6 L 1573.6 393 L 1670.7 393 L 1730.6 139.8 L 1777.2 139.8 L 1717.3 393.1 L 1814.4 393.1 L 1874.3 139.8 L 1920.9 139.8 L 1861 393.2 L 1958.1 393.2 L 2018.3 138.6 C 2022.6 120.3 2008.7 102.7 1989.9 102.7 L 1642.3 102.6 Z" style="fill: rgb(255, 255, 255);"/>
  <path class="st0" d="M 2073.5 102.8 L 2013.3 357.3 C 2009 375.6 2022.9 393.2 2041.7 393.2 L 2101.9 393.2 L 2170.6 102.8 L 2073.5 102.8 Z" style="fill: rgb(255, 255, 255);"/>
  <path class="st0" d="M 740.2 102.6 L 671.5 393 L 768.6 393 L 786.4 317.5 L 880.5 317.5 L 887.4 393 L 982.3 393 L 958.2 129.1 C 956.8 114.1 944.2 102.6 929.1 102.6 L 740.2 102.6 Z M 795.3 280.3 L 828.5 139.8 L 864.4 139.8 L 877.2 280.3 L 795.3 280.3 Z" style="fill: rgb(255, 255, 255);"/>
  <path class="st0" d="M 2956.6 102.6 L 2887.9 393 L 2985 393 L 3002.9 317.5 L 3097 317.5 L 3103.9 393 L 3198.8 393 L 3174.7 129.1 C 3173.3 114.1 3160.7 102.6 3145.6 102.6 L 2956.6 102.6 Z M 3011.7 280.3 L 3044.9 139.8 L 3080.8 139.8 L 3093.6 280.3 L 3011.7 280.3 Z" style="fill: rgb(255, 255, 255);"/>
  <path class="st0" d="M 2289.8 206.8 L 2305.6 139.8 L 2469.6 139.8 L 2478.4 102.6 L 2217.1 102.9 L 2192.2 208.1 C 2187.9 226.4 2201.8 244 2220.6 244 L 2347.7 244 L 2321.3 355.8 L 2157.3 355.8 L 2148.4 393 L 2409.7 393 L 2445.2 242.7 C 2449.5 224.4 2435.6 206.8 2416.8 206.8 L 2289.8 206.8 Z" style="fill: rgb(255, 255, 255);"/>
</svg>
